public/img/verizon.svg

<svg width="82" height="18" viewBox="0 0 82 18" fill="none" xmlns="http://www.w3.org/2000/svg">
<path d="M80.1142 0.0281045C80.7409 -0.00994381 81.3707 -0.000431746 82.0006 0.00590963C80.1142 3.9122 78.295 7.85019 76.4438 11.7755C75.9322 11.7818 75.4206 11.7818 74.9123 11.7723C74.0618 9.797 73.0802 7.87556 72.1914 5.9129C72.8053 5.90022 73.416 5.89388 74.0298 5.9129C74.5606 7.12093 75.1872 8.28775 75.6732 9.51481C77.1599 6.35046 78.685 3.21148 80.1142 0.0281045Z" fill="#ED2224"/>
<path d="M32.7049 1.70703C33.9199 1.71971 35.1348 1.71654 36.353 1.70703C36.3338 2.78189 36.3434 3.85676 36.3466 4.93162C35.1284 4.9126 33.9103 4.92845 32.6953 4.92211C32.7081 3.85042 32.6889 2.77555 32.7049 1.70703Z" fill="#010101"/>
<path d="M14.3652 6.31221C16.8462 4.91711 20.4527 5.39271 22.1313 7.80244C23.1608 9.22607 23.4518 11.0334 23.4422 12.7519C20.5934 12.7772 17.7415 12.7487 14.8927 12.7646C15.0238 13.6397 15.4011 14.5592 16.2164 15.0126C17.3706 15.6816 19.193 15.4914 19.7749 14.1597C20.9419 14.1216 22.1153 14.1311 23.2855 14.1628C22.9178 15.4977 21.9458 16.6233 20.7117 17.2511C19.3816 17.9708 17.799 18.1135 16.3219 17.8662C14.7712 17.6189 13.3165 16.7469 12.4372 15.4438C11.4844 14.0645 11.2223 12.308 11.4461 10.6751C11.6795 8.88364 12.7537 7.19049 14.3652 6.31221ZM16.3027 8.35731C15.4906 8.74413 15.0877 9.6129 14.9119 10.4436C16.5329 10.4373 18.1539 10.4373 19.7749 10.4436C19.6694 9.7968 19.4488 9.13095 18.95 8.67755C18.2562 8.01487 17.1468 7.99268 16.3027 8.35731Z" fill="#010101"/>
<path d="M52.5506 5.68859C54.5073 5.33981 56.6751 5.74883 58.1778 7.09638C60.7484 9.35708 60.8571 13.7453 58.4751 16.1772C56.5919 18.124 53.4298 18.4887 51.0095 17.3884C49.1391 16.5514 47.8666 14.6553 47.646 12.6514C47.5565 11.4909 47.6044 10.2829 48.0936 9.20805C48.829 7.36588 50.5939 6.01517 52.5506 5.68859ZM52.9694 8.36465C51.9399 8.71977 51.4667 9.83268 51.3165 10.8251C51.1982 12.0775 51.2141 13.4853 52.0358 14.5221C52.9119 15.6541 54.8462 15.6224 55.7255 14.5094C56.4608 13.6026 56.5631 12.3724 56.4928 11.2531C56.4353 10.2702 56.0995 9.21122 55.2651 8.61513C54.6 8.16807 53.7144 8.09831 52.9694 8.36465Z" fill="#010101"/>
<path d="M65.5657 6.3623C66.7679 5.42061 68.4944 5.32232 69.8852 5.8867C70.8763 6.3084 71.6277 7.18034 71.9666 8.18862C72.3567 9.22227 72.2416 10.3415 72.2576 11.4196C72.2639 13.4868 72.2416 15.551 72.2703 17.6183C71.0586 17.6404 69.8468 17.6151 68.6319 17.6309C68.6287 15.2656 68.6319 12.8971 68.6287 10.5349C68.6255 9.91982 68.3985 9.26348 67.8837 8.88934C67.1132 8.36301 65.9717 8.46764 65.3099 9.12397C64.7888 9.65031 64.5522 10.4049 64.565 11.1342C64.5618 13.3029 64.5713 15.4685 64.5618 17.6373C63.366 17.6151 62.167 17.6373 60.968 17.6278C60.968 13.7183 60.9776 9.81201 60.9648 5.90255C62.135 5.91524 63.3052 5.88987 64.4786 5.91841C64.4658 6.45742 64.4594 6.99644 64.4499 7.53863C64.8079 7.13278 65.1181 6.67937 65.5657 6.3623Z" fill="#010101"/>
<path d="M0 5.91101C1.25652 5.90466 2.51304 5.90466 3.76956 5.91101C4.52412 8.4317 5.33942 10.9365 6.0588 13.4668C6.93165 10.9809 7.60627 8.42536 8.42157 5.91735C9.63972 5.89832 10.8547 5.91101 12.0728 5.90784C10.682 9.81095 9.32 13.7204 7.95157 17.6299C6.69185 17.6362 5.42894 17.614 4.16922 17.6457C2.74005 13.7489 1.45795 9.79827 0 5.91101Z" fill="#010101"/>
<path d="M24.2676 5.90317C25.4282 5.89683 26.592 5.90317 27.7526 5.9C27.743 6.55633 27.7494 7.21583 27.7174 7.87534C28.0212 7.54559 28.2322 7.14291 28.5487 6.8195C29.332 5.96975 30.6077 5.61781 31.7268 5.90951C31.7172 6.94315 31.7172 7.97363 31.7268 9.0041C30.8315 8.89947 29.8436 8.94069 29.0826 9.47971C28.2705 10.0441 27.9093 11.0651 27.9188 12.0194C27.9093 13.887 27.9156 15.7545 27.9188 17.622C26.7007 17.6284 25.4857 17.6125 24.2708 17.6316C24.2804 13.7221 24.2804 9.81263 24.2676 5.90317Z" fill="#010101"/>
<path d="M32.6914 5.91186C33.9128 5.896 35.1309 5.91186 36.3523 5.90234C36.3299 9.8118 36.3459 13.7244 36.3459 17.6339C35.1277 17.6244 33.9096 17.6276 32.6946 17.6307C32.701 13.7244 32.701 9.81814 32.6914 5.91186Z" fill="#010101"/>
<path d="M37.3372 5.89844C40.6304 5.91429 43.9235 5.89527 47.2167 5.90795C47.1847 6.80208 47.2167 7.69939 47.2007 8.59352C47.0888 8.81864 46.8874 8.98669 46.7275 9.1801C45.0298 11.0413 43.3768 12.9374 41.6663 14.7859C43.6038 14.8239 45.5413 14.789 47.4789 14.8049C47.4757 15.7498 47.4789 16.6915 47.4757 17.6332C44.0962 17.6173 40.7167 17.6205 37.3372 17.6332C37.334 16.7263 37.3404 15.8195 37.334 14.9127C39.0989 12.9437 40.8701 10.9811 42.6574 9.03425C42.7086 8.93279 42.926 8.8345 42.8141 8.7045C40.9916 8.7584 39.1692 8.7045 37.3468 8.73303C37.3308 7.78817 37.3404 6.8433 37.3372 5.89844Z" fill="#010101"/>
</svg>

<svg width="82" height="18" fill="none" xmlns="http://www.w3.org/2000/svg"><path d="M80.114.028C80.741-.01 81.371 0 82.001.006c-1.887 3.906-3.706 7.844-5.557 11.77-.512.006-1.023.006-1.532-.004-.85-1.975-1.832-3.896-2.72-5.86a35.544 35.544 0 0 1 1.838 0c.53 1.209 1.157 2.376 1.643 3.603C77.16 6.35 78.685 3.21 80.114.028z" fill="#ED2224"/><path d="M32.705 1.707c1.215.013 2.43.01 3.648 0-.02 1.075-.01 2.15-.006 3.225-1.219-.02-2.437-.004-3.652-.01.013-1.072-.006-2.146.01-3.215zm-18.34 4.605c2.481-1.395 6.088-.92 7.766 1.49 1.03 1.424 1.32 3.231 1.311 4.95-2.849.025-5.7-.003-8.55.013.132.875.51 1.794 1.324 2.248 1.155.669 2.977.478 3.559-.853a58.87 58.87 0 0 1 3.51.003c-.367 1.335-1.34 2.46-2.573 3.088-1.33.72-2.913.862-4.39.615-1.55-.247-3.005-1.12-3.885-2.422-.953-1.38-1.215-3.136-.99-4.769.233-1.791 1.307-3.485 2.918-4.363zm1.938 2.045c-.812.387-1.215 1.256-1.391 2.087 1.62-.007 3.242-.007 4.863 0-.106-.647-.326-1.313-.825-1.766-.694-.663-1.803-.685-2.647-.32zM52.55 5.69c1.956-.35 4.124.06 5.627 1.407 2.57 2.261 2.68 6.65.297 9.081-1.883 1.947-5.045 2.312-7.465 1.211-1.87-.837-3.143-2.733-3.364-4.737-.09-1.16-.042-2.368.448-3.443.735-1.842 2.5-3.193 4.457-3.52zm.418 2.676c-1.03.355-1.502 1.468-1.653 2.46-.118 1.253-.102 2.66.72 3.697.876 1.132 2.81 1.1 3.69-.013.735-.906.837-2.137.767-3.256-.058-.983-.394-2.042-1.228-2.638-.665-.447-1.55-.517-2.296-.25zm12.597-2.003c1.202-.941 2.928-1.04 4.32-.475.99.421 1.742 1.293 2.08 2.302.39 1.033.276 2.152.292 3.23.006 2.068-.016 4.132.012 6.2-1.211.021-2.423-.004-3.638.012-.003-2.365 0-4.734-.003-7.096-.004-.615-.23-1.272-.745-1.646-.77-.526-1.912-.421-2.574.235-.521.526-.758 1.28-.745 2.01-.003 2.169.006 4.335-.003 6.503-1.196-.022-2.395 0-3.594-.01 0-3.909.01-7.815-.003-11.724 1.17.012 2.34-.013 3.514.015-.013.54-.02 1.078-.03 1.62.359-.405.67-.859 1.117-1.176zM0 5.911c1.257-.006 2.513-.006 3.77 0 .754 2.52 1.57 5.026 2.289 7.556.873-2.486 1.547-5.042 2.363-7.55 1.218-.019 2.433-.006 3.65-.01-1.39 3.904-2.752 7.813-4.12 11.723-1.26.006-2.523-.016-3.783.016C2.74 13.749 1.458 9.798 0 5.91zm24.268-.008c1.16-.006 2.324 0 3.485-.003-.01.656-.004 1.316-.036 1.975.304-.33.515-.732.832-1.056.783-.85 2.059-1.201 3.178-.91-.01 1.034-.01 2.065 0 3.095-.896-.105-1.883-.063-2.644.476-.813.564-1.174 1.585-1.164 2.54-.01 1.867-.003 3.735 0 5.602-1.218.006-2.433-.01-3.648.01.01-3.91.01-7.82-.003-11.729zm8.423.009c1.222-.016 2.44 0 3.661-.01-.022 3.91-.006 7.822-.006 11.732-1.218-.01-2.436-.006-3.651-.003.006-3.907.006-7.813-.004-11.72zm4.646-.014c3.293.016 6.586-.003 9.88.01-.032.894 0 1.791-.016 2.686-.112.225-.314.393-.474.586-1.697 1.861-3.35 3.757-5.06 5.606 1.937.038 3.874.003 5.812.019-.003.945 0 1.887-.003 2.828-3.38-.016-6.76-.012-10.139 0-.003-.907.003-1.813-.003-2.72a666.156 666.156 0 0 1 5.323-5.879c.052-.101.269-.2.157-.33-1.822.054-3.645 0-5.467.029-.016-.945-.007-1.89-.01-2.835z" fill="#010101"/></svg>
